static/assets/template/assets/img/icons/essential/detailed/Laptop_Store.svg

<svg height="92" viewBox="0 0 152 92" width="152" xmlns="http://www.w3.org/2000/svg"><g fill="none" fill-rule="evenodd"><g stroke-linecap="round" stroke-linejoin="round" stroke-width="3" transform="translate(1 89)"><path d="m1.6.9h-1"/><path d="m27.9.9h-22.6"/><path d="m32.7.9h-.8"/><path d="m107.6.9h-69.9"/><path d="m140.2.9h-28.7"/><path d="m145.2.9h-1.4"/><path d="m149.5.9h-.2"/></g><g transform="translate(10 2)"><g fill-rule="nonzero"><path d="m131.8 79.2v3.4c0 3.1-2.6 5.6-5.9 5.6h-119.2c-3.3 0-5.9-2.5-5.9-5.6v-3.4h53.9c.4 1.3 1.7 2.2 3.2 2.2h16.8c1.5 0 2.7-.9 3.2-2.2z"/><path d="m125 79.2h-117.6v-73.9c0-2.7 2.2-4.9 4.9-4.9h107.8c2.7 0 4.9 2.2 4.9 4.9z"/><path d="m125 7.6v71.6h-114.6v-73.2c0-1.7 1.4-3.1 3.1-3.1h106.8c2.6 0 4.7 2.1 4.7 4.7z"/><path d="m95.8 79.5h-82.8v-72.8h106.1v72.8h-11.1"/><path d="m118.8 11.7h-106.1l-2.3 1.1v18.1c3.2-1.6 5.4-4.9 5.4-8.7 0 5.3 4.3 9.7 9.5 9.7s9.6-4.8 9.6-10.2c0 5.3 4.1 10.2 9.4 10.2 5 0 9.1-3.9 9.4-8.9.6 5.4 5.1 9.1 9.5 9.1 5.2 0 9.4-4.2 9.5-9.5v.1.4-.4c2.5 13.9 18.8 10.6 18.8-.4 0 11.9 17.2 13 19.2 1.7 1 4.4 4.7 7.9 9.2 7.9 2 0 3.7-.6 5.2-1.6v-14.3z" fill="#9ecbff"/></g><path d="m50.7 79.2h-43.2v-9.1" stroke-linecap="round" stroke-linejoin="round" stroke-width="3"/><path d="m7.5 55.1v-49.8c0-2.7 2.2-4.9 4.9-4.9h107.8c2.7 0 4.9 2.2 4.9 4.9v73.9h-31.1" stroke-linecap="round" stroke-linejoin="round" stroke-width="3"/><path d="m7.5 60.7v-1.1" stroke-linecap="round" stroke-linejoin="round" stroke-width="3"/><path d="m119.1 31.3v47.9" stroke-linecap="round" stroke-linejoin="round" stroke-width="3"/><path d="m131.8 81.9v2.4c0 2.2-2.6 4-5.8 4h-116.2c-3.2 0-5.8-1.8-5.8-4v-2.4h49.4c.4.9 1.7 1.5 3.1 1.5h19.6c1.4 0 2.7-.6 3.1-1.5z" fill-rule="nonzero"/><path d="m13 6.7h106.1" fill-rule="nonzero"/><path d="m48.2 79.2h-35.2v-72.5h106.1v16.8" stroke-linecap="round" stroke-linejoin="round" stroke-width="3"/><path d="m87.3 79.2h-.7" stroke-linecap="round" stroke-linejoin="round" stroke-width="3"/><path d="m119.1 79.2h-27.5" stroke-linecap="round" stroke-linejoin="round" stroke-width="3"/><path d="m119.1 79.2h12.6v3.4c0 3.1-2.6 5.6-5.9 5.6h-119.1c-3.3 0-5.9-2.5-5.9-5.6v-3.4h53.9c.4 1.3 1.7 2.2 3.2 2.2h16.8c1.1 0 2-.5 2.6-1.2" stroke-linecap="round" stroke-linejoin="round" stroke-width="3"/></g><g transform="translate(7 8)"><path d="m133.2 7.4-10.5-7.4c-21.7 0-83.5 0-106.2 0l-15.8 7.4v2.2c-.6 5.4 3.7 10.5 9.4 10.5 5.2 0 9.5-4.3 9.5-9.6 0 5.3 4.3 9.6 9.5 9.6s9.6-4.8 9.6-10.2c0 5.3 4.1 10.2 9.4 10.2 5 0 9-3.9 9.4-8.9.6 5.4 5.2 9.1 9.5 9.1 5.2 0 9.4-4.2 9.5-9.5v.5-.4c2.5 13.9 18.8 10.6 18.8-.4 0 11.9 17.2 13 19.2 1.8 1 4.4 4.7 7.9 9.2 7.9 6 0 10.1-5.6 9.4-10.5v-2.3z" fill-rule="nonzero"/><path d="m95.6 7.4-.1 3.9c.1-.4.1-.9.1-1.3 0 5.3 4.4 10.2 9.6 10.2s9.5-4.3 9.5-9.6v.6l-.1-3.3-6-5.8-1.3-1.9h-15.6z" fill-rule="nonzero"/><path d="m114.3 10v-2.6l-6.4-7.3" stroke-linecap="round" stroke-linejoin="round" stroke-width="3"/><path d="m95.3 9.6v-2.2l-3.2-7.3" fill-rule="nonzero" stroke-linecap="round" stroke-linejoin="round" stroke-width="3"/><path d="m38.6 7.4.1 3.9c-.1-.4-.1-.9-.1-1.3 0 5.3-4.4 10.2-9.6 10.2s-9.5-4.3-9.5-9.6v.6l.1-3.3 6-5.8 1.3-1.9h15.6z" fill-rule="nonzero"/><path d="m57.4 7.6-.1 3.9c.1-.4.1-.9.1-1.3 0 5.3 4.4 10.2 9.6 10.2s9.5-4.3 9.5-9.6v.6l-.1-3.3-1.7-5.8-.2-1.9h-15z" fill-rule="nonzero"/><g stroke-linecap="round" stroke-linejoin="round" stroke-width="3"><path d="m76.4 10.9c-.5 4.9-4.5 9.2-9.5 9.2-5.2 0-9.5-4.3-9.5-9.6 0 5.3-4.2 9.6-9.5 9.6-4.8 0-8.7-4.1-9.3-8.8-.1-.4-.1-.9-.1-1.3v.1-.1.2s0 0 0-.1c0 5.3-4.4 10.2-9.6 10.2s-9.5-4.3-9.5-9.6v.6c-.3 5-4.4 9-9.4 9-5.2 0-9.5-4.3-9.5-9.6 0-.3 0-.6 0-.9v-2.2l15.8-7.4h68.1"/><path d="m77.2.1h45.4l10.5 7.4v2.2.9c0 5.3-4.2 9.7-9.5 9.7-5.2 0-9.4-4.8-9.4-10.2v.1-.2.1s0 0 0-.1c0 5.3-4.3 10.2-9.5 10.2s-9.5-4.3-9.5-9.7c0 5.3-4.2 9.7-9.5 9.7-4.6 0-8.4-3.8-9.2-8.3l-.2-.9"/><path d="m19.6 9.6v-2.2l7.3-7.3"/><path d="m38.6 10v-2.6l4.1-7.3" fill-rule="nonzero"/><path d="m76.4 10v-2.6l-2-7.3"/><path d="m57.4 9.6v-2.2l2.1-7.3"/><path d="m62.8 7.4h70.4" fill-rule="nonzero"/><path d="m13.1 7.4h44.3" fill-rule="nonzero"/><path d="m9 7.4h.7" fill-rule="nonzero"/><path d="m.6 7.4h3.1" fill-rule="nonzero"/></g></g></g></svg>

<?xml version="1.0" encoding="UTF-8"?>
<svg width="152px" height="92px" viewBox="0 0 152 92" version="1.1" xmlns="http://www.w3.org/2000/svg" xmlns:xlink="http://www.w3.org/1999/xlink">
    <!-- Generator: Sketch 51.2 (57519) - http://www.bohemiancoding.com/sketch -->
    <title>Laptop_Store</title>
    <desc>Created with Sketch.</desc>
    <defs></defs>
    <g id="Page-1" stroke="none" stroke-width="1" fill="none" fill-rule="evenodd">
        <g id="Laptop_Store" transform="translate(1.000000, 2.000000)">
            <g id="Group" transform="translate(0.000000, 87.000000)" class="stroke-primary-300" stroke-linecap="round" stroke-linejoin="round" stroke-width="3">
                <path d="M1.6,0.9 L0.6,0.9" id="Shape"></path>
                <path d="M27.9,0.9 L5.3,0.9" id="Shape"></path>
                <path d="M32.7,0.9 L31.9,0.9" id="Shape"></path>
                <path d="M107.6,0.9 L37.7,0.9" id="Shape"></path>
                <path d="M140.2,0.9 L111.5,0.9" id="Shape"></path>
                <path d="M145.2,0.9 L143.8,0.9" id="Shape"></path>
                <path d="M149.5,0.9 L149.3,0.9" id="Shape"></path>
            </g>
            <g id="Group" transform="translate(9.000000, 0.000000)">
                <path d="M131.8,79.2 L131.8,82.6 C131.8,85.7 129.2,88.2 125.9,88.2 L6.7,88.2 C3.4,88.2 0.8,85.7 0.8,82.6 L0.8,79.2 L54.7,79.2 C55.1,80.5 56.4,81.4 57.9,81.4 L74.7,81.4 C76.2,81.4 77.4,80.5 77.9,79.2 L131.8,79.2 Z" id="Shape" class="fill-neutral" fill-rule="nonzero"></path>
                <path d="M125,79.2 L7.4,79.2 L7.4,5.3 C7.4,2.6 9.6,0.4 12.3,0.4 L120.1,0.4 C122.8,0.4 125,2.6 125,5.3 L125,79.2 Z" id="Shape" class="fill-neutral" fill-rule="nonzero"></path>
                <path d="M125,7.6 L125,79.2 L10.4,79.2 L10.4,6 C10.4,4.3 11.8,2.9 13.5,2.9 L120.3,2.9 C122.9,2.9 125,5 125,7.6 Z" id="Shape" class="fill-primary-100" fill-rule="nonzero"></path>
                <polyline id="Shape" class="fill-neutral" fill-rule="nonzero" points="95.8 79.5 13 79.5 13 6.7 119.1 6.7 119.1 79.5 108 79.5"></polyline>
                <path d="M118.8,11.7 L12.7,11.7 L10.4,12.8 L10.4,30.9 C13.6,29.3 15.8,26 15.8,22.2 C15.8,27.5 20.1,31.9 25.3,31.9 C30.5,31.9 34.9,27.1 34.9,21.7 C34.9,27 39,31.9 44.3,31.9 C49.3,31.9 53.4,28 53.7,23 C54.3,28.4 58.8,32.1 63.2,32.1 C68.4,32.1 72.6,27.9 72.7,22.6 L72.7,22.7 C72.7,22.8 72.7,23 72.7,23.1 L72.7,22.7 C75.2,36.6 91.5,33.3 91.5,22.3 C91.5,34.2 108.7,35.3 110.7,24 C111.7,28.4 115.4,31.9 119.9,31.9 C121.9,31.9 123.6,31.3 125.1,30.3 L125.1,16 L118.8,11.7 Z" id="Shape" fill="#9ECBFF" fill-rule="nonzero"></path>
                <polyline id="Shape" class="stroke-primary" stroke-width="3" stroke-linecap="round" stroke-linejoin="round" points="50.7 79.2 7.5 79.2 7.5 70.1"></polyline>
                <path d="M7.5,55.1 L7.5,5.3 C7.5,2.6 9.7,0.4 12.4,0.4 L120.2,0.4 C122.9,0.4 125.1,2.6 125.1,5.3 L125.1,79.2 L94,79.2" id="Shape" class="stroke-primary" stroke-width="3" stroke-linecap="round" stroke-linejoin="round"></path>
                <path d="M7.5,60.7 L7.5,59.6" id="Shape" class="stroke-primary" stroke-width="3" stroke-linecap="round" stroke-linejoin="round"></path>
                <path d="M119.1,31.3 L119.1,79.2" id="Shape" class="stroke-primary" stroke-width="3" stroke-linecap="round" stroke-linejoin="round"></path>
                <path d="M131.8,81.9 L131.8,84.3 C131.8,86.5 129.2,88.3 126,88.3 L9.8,88.3 C6.6,88.3 4,86.5 4,84.3 L4,81.9 L53.4,81.9 C53.8,82.8 55.1,83.4 56.5,83.4 L76.1,83.4 C77.5,83.4 78.8,82.8 79.2,81.9 L131.8,81.9 Z" id="Shape" class="fill-primary-300" fill-rule="nonzero"></path>
                <path d="M13,6.7 L119.1,6.7" id="Shape" class="fill-neutral" fill-rule="nonzero"></path>
                <polyline id="Shape" class="stroke-primary" stroke-width="3" stroke-linecap="round" stroke-linejoin="round" points="48.2 79.2 13 79.2 13 6.7 119.1 6.7 119.1 23.5"></polyline>
                <path d="M87.3,79.2 L86.6,79.2" id="Shape" class="stroke-primary" stroke-width="3" stroke-linecap="round" stroke-linejoin="round"></path>
                <path d="M119.1,79.2 L91.6,79.2" id="Shape" class="stroke-primary" stroke-width="3" stroke-linecap="round" stroke-linejoin="round"></path>
                <path d="M119.1,79.2 L131.7,79.2 L131.7,82.6 C131.7,85.7 129.1,88.2 125.8,88.2 L6.7,88.2 C3.4,88.2 0.8,85.7 0.8,82.6 L0.8,79.2 L54.7,79.2 C55.1,80.5 56.4,81.4 57.9,81.4 L74.7,81.4 C75.8,81.4 76.7,80.9 77.3,80.2" id="Shape" class="stroke-primary" stroke-width="3" stroke-linecap="round" stroke-linejoin="round"></path>
            </g>
            <g id="Group" transform="translate(6.000000, 6.000000)">
                <path d="M133.2,7.4 L122.7,0 C101,0 39.2,0 16.5,0 L0.7,7.4 L0.7,9.6 C0.1,15 4.4,20.1 10.1,20.1 C15.3,20.1 19.6,15.8 19.6,10.5 C19.6,15.8 23.9,20.1 29.1,20.1 C34.3,20.1 38.7,15.3 38.7,9.9 C38.7,15.2 42.8,20.1 48.1,20.1 C53.1,20.1 57.1,16.2 57.5,11.2 C58.1,16.6 62.7,20.3 67,20.3 C72.2,20.3 76.4,16.1 76.5,10.8 C76.5,11 76.5,11.1 76.5,11.3 L76.5,10.9 C79,24.8 95.3,21.5 95.3,10.5 C95.3,22.4 112.5,23.5 114.5,12.3 C115.5,16.7 119.2,20.2 123.7,20.2 C129.7,20.2 133.8,14.6 133.1,9.7 L133.1,7.4 L133.2,7.4 Z" id="Shape" class="fill-neutral" fill-rule="nonzero"></path>
                <g id="Shape">
                    <path d="M95.6,7.4 L95.5,11.3 C95.6,10.9 95.6,10.4 95.6,10 C95.6,15.3 100,20.2 105.2,20.2 C110.4,20.2 114.7,15.9 114.7,10.6 C114.7,10.8 114.7,11 114.7,11.2 L114.6,7.9 L108.6,2.1 L107.3,0.2 L91.7,0.2 L95.6,7.4 Z" class="fill-primary-300" fill-rule="nonzero"></path>
                    <polyline class="stroke-primary" stroke-width="3" stroke-linecap="round" stroke-linejoin="round" points="114.3 10 114.3 7.4 107.9 0.1"></polyline>
                    <polyline stroke-width="3" class="stroke-primary fill-neutral" fill-rule="nonzero" stroke-linecap="round" stroke-linejoin="round" points="95.3 9.6 95.3 7.4 92.1 0.1"></polyline>
                    <path d="M38.6,7.4 L38.7,11.3 C38.6,10.9 38.6,10.4 38.6,10 C38.6,15.3 34.2,20.2 29,20.2 C23.8,20.2 19.5,15.9 19.5,10.6 C19.5,10.8 19.5,11 19.5,11.2 L19.6,7.9 L25.6,2.1 L26.9,0.2 L42.5,0.2 L38.6,7.4 Z" class="fill-primary-300" fill-rule="nonzero"></path>
                    <path d="M57.4,7.6 L57.3,11.5 C57.4,11.1 57.4,10.6 57.4,10.2 C57.4,15.5 61.8,20.4 67,20.4 C72.2,20.4 76.5,16.1 76.5,10.8 C76.5,11 76.5,11.2 76.5,11.4 L76.4,8.1 L74.7,2.3 L74.5,0.4 L59.5,0.4 L57.4,7.6 Z" class="fill-primary-300" fill-rule="nonzero"></path>
                    <path d="M76.4,10.9 C75.9,15.8 71.9,20.1 66.9,20.1 C61.7,20.1 57.4,15.8 57.4,10.5 C57.4,15.8 53.2,20.1 47.9,20.1 C43.1,20.1 39.2,16 38.6,11.3 C38.5,10.9 38.5,10.4 38.5,10 C38.5,10 38.5,10 38.5,10.1 C38.5,10.1 38.5,10 38.5,10 L38.5,10.2 C38.5,10.2 38.5,10.2 38.5,10.1 C38.5,15.4 34.1,20.3 28.9,20.3 C23.7,20.3 19.4,16 19.4,10.7 C19.4,10.9 19.4,11.1 19.4,11.3 C19.1,16.3 15,20.3 10,20.3 C4.8,20.3 0.5,16 0.5,10.7 C0.5,10.4 0.5,10.1 0.5,9.8 L0.5,7.6 L16.3,0.2 L84.4,0.2" class="stroke-primary" stroke-width="3" stroke-linecap="round" stroke-linejoin="round"></path>
                    <path d="M77.2,0.1 L122.6,0.1 L133.1,7.5 L133.1,9.7 C133.1,10 133.1,10.3 133.1,10.6 C133.1,15.9 128.9,20.3 123.6,20.3 C118.4,20.3 114.2,15.5 114.2,10.1 C114.2,10.1 114.2,10.1 114.2,10.2 C114.2,10.2 114.2,10 114.2,10 C114.2,10 114.2,10.1 114.2,10.1 C114.2,10.1 114.2,10.1 114.2,10 C114.2,15.3 109.9,20.2 104.7,20.2 C99.5,20.2 95.2,15.9 95.2,10.5 C95.2,15.8 91,20.2 85.7,20.2 C81.1,20.2 77.3,16.4 76.5,11.9 L76.3,11" class="stroke-primary" stroke-width="3" stroke-linecap="round" stroke-linejoin="round"></path>
                    <polyline class="stroke-primary" stroke-width="3" stroke-linecap="round" stroke-linejoin="round" points="19.6 9.6 19.6 7.4 26.9 0.1"></polyline>
                    <polyline stroke-width="3" class="stroke-primary fill-neutral" fill-rule="nonzero" stroke-linecap="round" stroke-linejoin="round" points="38.6 10 38.6 7.4 42.7 0.1"></polyline>
                    <polyline class="stroke-primary" stroke-width="3" stroke-linecap="round" stroke-linejoin="round" points="76.4 10 76.4 7.4 74.4 0.1"></polyline>
                    <polyline class="stroke-primary" stroke-width="3" stroke-linecap="round" stroke-linejoin="round" points="57.4 9.6 57.4 7.4 59.5 0.1"></polyline>
                    <path d="M62.8,7.4 L133.2,7.4" stroke-width="3" class="stroke-primary fill-neutral" fill-rule="nonzero" stroke-linecap="round" stroke-linejoin="round"></path>
                    <path d="M13.1,7.4 L57.4,7.4" stroke-width="3" class="stroke-primary fill-neutral" fill-rule="nonzero" stroke-linecap="round" stroke-linejoin="round"></path>
                    <path d="M9,7.4 L9.7,7.4" stroke-width="3" class="stroke-primary fill-neutral" fill-rule="nonzero" stroke-linecap="round" stroke-linejoin="round"></path>
                    <path d="M0.6,7.4 L3.7,7.4" stroke-width="3" class="stroke-primary fill-neutral" fill-rule="nonzero" stroke-linecap="round" stroke-linejoin="round"></path>
                </g>
            </g>
        </g>
    </g>
</svg>
